X: 34298
T: Restless Boy, The
R: jig
M: 6/8
K: Gmajor
BGG Add|~B3 BAG|BGG ADD|GBG AFD|
BGG Add|BAG ABc|dge f2d|1 cAF G3:|2 cAF G2D||
|:GBd ~g3|fed cAF|GBd ~g3|faf g2e|
[1faf gfe|fed cAG|~B3 BAG|BdB cAF:|
[2faf gfe|fed e^cA|faf ge^c|ded d2D||
|:GBB B2d|cA^G ~A3|GBB BAG|BdB cAF|
GBB B2d|cA^G ABc|dge f2d|cAF G2D:|

